!!!COM: Vivaldi, Antonio
!!!OTL: Concerto a violino solo, No. 3
!!!XEN: Violin Concerto No. 3
!!!OTP: L'Autunno
!!!OTA: The Four Seasons, Autumn
!!!OPR: Il Cimento dell'armonia e dell'inventione
!!!XEN: The Contest of Harmony and Invention
!!!OPS: Opus 8
!!!ONM: No. 3
!!!OMV: Movement 2.
!!!YEC: Copyright 1996, Center for Computer Assisted Research in the Humanities
!!!YEM: Rights to all derivative electronic formats reserved.
!!!YEM: Refer to licensing agreement for important restrictions.
!!!OMD: Adagio molto
**kern	**kern	**kern	**kern	**kern	**Bnum
*Icello	*Iviola	*Ivioln	*Ivioln	*Ivioln	*Icemba
*Icemba	*	*	*	*	*
*ICstr	*ICstr	*ICstr	*ICstr	*ICstr	*ICklav
*ICklav	*	*	*	*	*
!violoncello	!viola 	!violino 2	!violino 1	!violino principale	!continuo
!basso continuo	!	!	!	!	!
*clefF4	*clefC3	*clefG2	*clefG2	*clefG2	*
*k[b-]	*k[b-]	*k[b-]	*k[b-]	*k[b-]	*k[b-]
*d:	*d:	*d:	*d:	*d:	*d:
*M3/4	*M3/4	*M3/4	*M3/4	*M3/4	*M3/4
! Il cembalo arpeggio	!	!	!	!	!
!! Manchester partbook: Il cembalo arpeggio ed il Violon e Violoncello piano
=1-	=1-	=1-	=1-	=1-	=1-
[2.D\	2.r	2.r	2.r	2.r	.
=2	=2	=2	=2	=2	=2
2.D_\	[2.B-/	2.r	2.r	2.r	6
=3	=3	=3	=3	=3	=3
2.D_\	2.B-_/	[2.g/	2.r	2.r	6 4
=4	=4	=4	=4	=4	=4
2.D\]	2.B-_/	2.g_/	[2.ee\	[2.ee\	6 4 2
=5	=5	=5	=5	=5	=5
[2.C#/	2.B-/]	2.g/]	2.ee\]	2.ee\]	7 5 3
=6	=6	=6	=6	=6	=6
2.C#_/	[2.e\	[2.gg\	[2.bb-\	[2.bb-\	.
=7	=7	=7	=7	=7	=7
2.C#/]	2.e\]	(4gg\]	(4bb-\]	(4bb-\]	.
.	.	4ff\	4aa\	4aa\	.
.	.	4ee\)	4gg\)	4gg\)	.
=8	=8	=8	=8	=8	=8
2.Cn/	2.d\	2.ff#\	2.aa\	2.aa\	6 4+ 2
=9	=9	=9	=9	=9	=9
2.D\	2.bn\	2.ee\	2.gg#\	2.gg#\	n6 4+ 2
=10	=10	=10	=10	=10	=10
[2.D#\	[2.cc\	[2.ff#\	[2.aa\	[2.aa\	7 5 #
=11	=11	=11	=11	=11	=11
2.D#\]	2.cc\]	(4ff#\]	(4aa\]	(4aa\]	.
.	.	4ee\	4gg\	4gg\	.
.	.	4dd#\)	4ff#\)	4ff#\)	.
=12	=12	=12	=12	=12	=12
[2.AA#/	[2.cc#\	[2.ee\	[2.gg\	[2.gg\	7 5
=13	=13	=13	=13	=13	=13
2.AA#/]	2.cc#\]	(4ee\]	(4gg\]	(4gg\]	.
.	.	4dd\	4ff#\	4ff#\	.
.	.	4cc#\)	4ee\)	4ee\)	.
=14	=14	=14	=14	=14	=14
2.AAn/	[2.bn\	2.dd#\	2.ff#\	2.ff#\	6\ 4+ n2
=15	=15	=15	=15	=15	=15
2.GG/	2.b_\	(4ee\	(4gg\	(4gg\	.
.	.	4ff#\	4aa\	4aa\	.
.	.	4gg\)	4bbn\)	4bbn\)	.
=16	=16	=16	=16	=16	=16
[2.GG#/	2.b_\	[2.dd\	[2.ffn\	[2.ffn\	n7 5
=17	=17	=17	=17	=17	=17
2.GG#/]	2.b\]	(4dd\]	(4ff\]	(4ff\]	.
.	.	4cc\	4ee\	4ee\	.
.	.	4bn\)	4dd\)	4dd\)	.
=18	=18	=18	=18	=18	=18
2.GGn/	[2.a\	2.cc#\	2.ee\	2.ee\	6 4+ 2
=19	=19	=19	=19	=19	=19
2.FF/	2.a\]	(4dd\	(4ff\	(4ff\	6
.	.	4ee\	4gg\	4gg\	.
.	.	4ff\)	4aa\)	4aa\)	.
=20	=20	=20	=20	=20	=20
[2.EE/	[2.c\	[2.gg\	[2.bb-\	[2.bb-\	6 5
=21	=21	=21	=21	=21	=21
2.EE/]	2.c\]	(4gg\]	(4bb-\]	(4bb-\]	.
.	.	4ff\	4aa-\	4aa-\	.
.	.	4ee\)	4gg\)	4gg\)	.
=22	=22	=22	=22	=22	=22
[2.BBn/	[2.d\	[2.ff\	[2.aa-\	[2.aa-\	b7 5
=23	=23	=23	=23	=23	=23
2.BB/]	2.d\]	(4ff\]	(4aa-\]	(4aa-\]	.
.	.	4ee\	4gg\	4gg\	.
.	.	4dd\)	4ff\)	4ff\)	.
=24	=24	=24	=24	=24	=24
!!*               D +     !33sempre !1p 
2.BB-/	[2.c\	2.ee\	[2.gg\	[2.gg\	6 4 2
=25	=25	=25	=25	=25	=25
[2.AA-/	2.c\]	2.ee-\	2.gg\]	2.gg\]	7 b5
=26	=26	=26	=26	=26	=26
2.AA-/]	2.a-\	2.cc\	[2.ff\	[2.ff\	6
=27	=27	=27	=27	=27	=27
[2.GG/	[2.Bn/	[2.dd\	2.ff_\	2.ff_\	7 5 n
=28	=28	=28	=28	=28	=28
2.GG_/	2.B/]	(4dd\]	(4ff\]	(4ff\]	.
.	.	4cc\	4ee\	4ee\	.
.	.	4bn\)	4dd\)	4dd\)	.
=29	=29	=29	=29	=29	=29
2.GG/]	2.a\	2.cc#\	2.ee\	2.ee\	6 4+ 2
=30	=30	=30	=30	=30	=30
2.GG#/	2.bn\	2.dd\	2.ff\	2.ff\	7 5 n
=31	=31	=31	=31	=31	=31
[2.AA/	[2.a\	(4cc#\	(4ee\	(4ee\	#
.	.	4dd\	4ff\	4ff\	.
.	.	4ee\)	4gg\)	4gg\)	.
=32	=32	=32	=32	=32	=32
2.AA_/	2.a\]	(2.ff\	(2.aa\	(2.aa\	8 6 4
=33	=33	=33	=33	=33	=33
2.AA_/	2.cc#\	2.ee\	2.gg\	2.gg\	7 5 #
=34	=34	=34	=34	=34	=34
2.AA_/	[2.a\	2.dd\)	2.ff\)	2.ff\)	6 4
=35	=35	=35	=35	=35	=35
!!*               D +     !33pi\u8 !1p 
2.AA_/	2.a_\	(2.cc#\	(2.ee\	(2.ee\	5 #
=36	=36	=36	=36	=36	=36
2.AA_/	2.a\]	2.dd\	2.ff\	2.ff\	6 4
=37	=37	=37	=37	=37	=37
2.AA_/	2.cc#\	2.ee\)	2.gg\)	2.gg\)	7 5 #
=38	=38	=38	=38	=38	=38
2.AA_/	[2.a\	(2.dd\	(2.ff\	(2.ff\	6 4
=39	=39	=39	=39	=39	=39
2.AA_/	2.a_\	2.cc#\)	2.ee\)	2.ee\)	5 #
=40	=40	=40	=40	=40	=40
2.AA_/	2.a\]	[2.dd\	2.ff\	2.ff\	6 4
=41	=41	=41	=41	=41	=41
2.AA_/	[2.g#\	2.dd_\	[2.ee\	[2.ee\	#7 5 4
=42	=42	=42	=42	=42	=42
2.AA_/	2.g#\]	2.dd\]	2.ee_\	2.ee_\	.
=43	=43	=43	=43	=43	=43
2.AA_/	[2.a\	[2.cc#\	2.ee_\	2.ee_\	5 #
=44	=44	=44	=44	=44	=44
2.AA_/	2.a\]	2.cc#_\	2.ee_\	2.ee_\	.
=45	=45	=45	=45	=45	=45
2.AA;/]	2.a;\	2.cc#;\]	2.ee;\]	2.ee;\]	.
==|!	==|!	==|!	==|!	==|!	==|!
*-	*-	*-	*-	*-	*-
!!!CDT: 1678/3/4/-1741/7/28
!!!OCY: Italia
!!!ODE: Count Wenzeslaus von Morzin of Bohemia; Count Wenceslas of Morzin
!!!ODT: 1725///
!!!OPC: Venezia; Venice
!!!AGN: concerto
!!!AST: baroque
!!!AMT: simple triple
!!!PPR: Michel-Charles Le Ce`ne
!!!PC#: Le Cene No. 520
!!!PDT: 1725///
!!!PPP: Amsterdam
!!!SCT: RV 293
!!!SMA1: The cooperation of the following libraries is gratefully acknowledged:
!!!SMA2: Saechsische Landesbibliothek, Dresden; Biblioteca Nazionale
!!!SMA3: Universitaria, Turin; Henry Watson Music Library, Manchester.
!!!YOR: New York: Dover Publications, Inc. 1995
!!!AIN: cello cemba viola violn
!!!EEV: 1.0
!!!RDT: 1994/4/6/
!!!YER: 1996/10/31/
!!!YEP: Center for Computer Assisted Research in the Humanities
!!!YEN: United States of America
!!!EFL: 2/3
!!!ENC: Edmund Correia, Jr.
!!!EED: Eleanor Selfridge-Field
